X:1
T: Dunrobin Castle
C:
R:Strathspey
Q: 128
K:Bb
M:4/4
L:1/16
|:A2|BF3 F3D BF3 Fd3|dF3 F3D B,CDE F4|BG3 G3A BG3 G3A|B3A GD3 CDEF G3A|
BF3 F3D BF3 Fd3|dF3 F3D B,CDE F4|f3d e3c d3B cdBA|BF3 GFED CDEF G2A2|
Bcde f3b d3b f3b|f3B d3c Bcde f4|Bcde f3b d3b f3b|b3a g3d cdef g4|
Bcde f3b d3b f3b|f3B d3c Bcde f4|d3f edcB dcBA cBAG|BAGF GFED CDEF G2:|
